X: 325
T:Miss Galvin
T:Unknown Hornpipe 170C
M:C
L:1/8
R:Hornpipe
Z:Kevin Gow
K:D
d2cA GEFE|D2FA DAFA|(3ded cA GEFE|cdef gefe|!
d2cA GEFE|DAFA DAFA|d2cA GEFE|cdec d3e:||!
||:fgaf dcde|fgaf (3gag fe|fgaf dcA2|(3Bcd ef g2fe|!
fgaf dcde|fgaf (3gag fe|fdec dcA2|(3Bcd ef gefe:||

